!!!OTL: Tichu haozi
!!!ARE: Asia, China,ˇGansu, Minqin
!! I, 143
!!!SCT: C1424
!!!YEM: Copyright 1995, estate of Helmut Schaffrath.
**kern
*ICvox
*Ivox
*M2/4
*k[b-e-a-]
*E-:
{8b-
8b-
8cc
16b-
16g
=1
8cc
16b-
16g
4f}
=2
{8cc
16g
16b-
16g
16f
16B-
16c
=3
16f
16g
8e-
4f}
=4
{8f
16f
16g
8e-
8c
=5
8f
16f
16g
4f}
=6
{8e-
16d
16c
8B-
16B-
16c
=7
16f
16g
8e-
8f
8c}
=8
{8b-
16g
16b-
16g
16f
16e-
16c
=9
8f
16f
16g
4b-}
=10
{8g
16g
16f
8c
16c
16e-
=11
16f
16g
8e-
4f}
=12
{4f
16g
16f
16e-
16c
=13
8.b-
16g
4f}
=14
{16f
16g
16f
16e-
8c
16B-
16c
=15
8.f
16e-
4f}
=16
{8ff
8ff
16ff
16dd
16cc
16ff
=17
16cc
16b-
16a-
16g
4f}
=18
{8f
8e-
8c
16B-
16c
=19
16f
16g
8e-
4f}
=20
{8b-
16g
16b-
16cc
16b-
16a-
16b-
=21
16cc
16b-
16a-
16g
4f}
=22
{16f
16g
16f
16e-
8c
16B-
16c
=23
16f
16g
8e-
4f}
=24
{8ff
16ff
16cc
16b-
16cc
16ff
16cc
=25
8b-
16a-
16g
8f
8b-}
=26
{8f
8e-
8f
16B-
16c
=27
16f
16g
8e-
4f}
=28
{4f
16g
16f
16e-
16c
=29
8.b-
16g
4f}
=30
{8.cc
16g
8b-
16e-
16c
=31
8.f
16e-
4f}
==
!!!AGN: Haozi
!!!ONB: ESAC (Essen Associative Code) Database: HUANG
!!!AMT: simple duple
!!!AIN: vox
!!!EED: Helmut Schaffrath
!!!EEV: 1.0
*-
!!!OTL: Lunan shange
!!!ARE: Asia, China,ˇYunnan
!! II, 57
!!!SCT: C1487
!!!YEM: Copyright 1995, estate of Helmut Schaffrath.
**kern
*ICvox
*Ivox
*M2/4
*k[]
*C:
{8cc
8cc
8a
8cc
=1
4.dd
8ee
=2
8.ee
16cc
8.dd
16ee}
=3
{8cc
8dd
4a
=4
4.g
8cc
=5
4a
8g
8a
=6
2d}
=7
{8d
8d
8d
8g
=8
8b
8g
4a}
=9
{8.cc
16dd
4a
=10
4.g
8cc
=11
4a
8g
8a
=12
2d}
==
!!!AGN: Shange. NannÅ qing
!!!AMT: simple duple
!!!AIN: vox
!!!EED: Helmut Schaffrath
!!!EEV: 1.0
*-
